X:83
T:Fifty Cent Piece
M:6/8
Q:1/8=300
K:A
%%MIDI channel 1
%%MIDI program 72
%%MIDI transpose 8
%%MIDI grace 1/8
%%MIDI ratio 3 1
e|aga efg|aga e2e|=gfg dBG|=gfg e2e|aga efg|aga e2e|cBA BAG|A3-A2::
f|e2c cBA|e2c cBA|d2B BA=G|ABc def|e2c cBA|e^de a2=d|cBA BAG|A3-A2:|

